!!!ONB: MCCC : IBB0032_01 : Extracted Monophonic Melody
!!!COM: Bartók, Béla
!!!OPR: Piano Sonata
!!!OMV: 1
!!!SCT: Sz.80 ; BB 88
!!!ODT: 1926///
**kern
*staff1
=1
*clefG2
*k[f#]
*G:
*M2/4
8.GG#
64r
32.AA#
8BB
8BB
=2
*k[]
*C:
8r
8BB
8r
8BB
=3
8r
8BB
8r
8BB
=4
8r
8BB
8BBBB
8BB
=5
8r
8BB
8r
8BB
=6
*M3/4
8r
8BB
8r
8BB
8r
8BB
=7
*M2/4
8.c#
16d#
8e
8e
=8
8e
8e
8e
8e
=9
8e
8e
8r
8e
=10
8e
8e
8e
8e
=11
8r
8e
8e
8e
=12
8r
8e
8r
8e
=13
*M3/4
8r
8e
8r
8e
8r
16e
16f#
=14
*M2/4
2g
=15
2g
=16
2g
=17
4g[
16g]
16a
16g
16f#
=18
16g
16f#
8e
8r
8e
=19
8r
8e
8r
8e
=20
8r
8e
8r
16e
16f#
=21
2g
=22
4g[
16g]
16a
16g
16f#
=23
16g
8f#
16a
16g
16f#
16g
16f#
=24
16r
16g
8f#
16g
8f#
16g
=25
8f#
16g
16f#
16r
16f#
16g
16a
=26
16b
8.cc
8r
16bb
16ccc
=27
8r
8f#
16b
16cc
8f#
=28
8r
16bb
16ccc
16r
16b
8cc
=29
8r
16b
16cc
16dd
16cc
16dd
16ee-
=30
16dd
8.cc
4r
=31
4r
16r
16fff
16eee-
16ddd
=32
16eee-
16ddd
8ccc
16r
16ff
16ee-
16dd
=33
4cc
16ee-
16dd
8cc
=34
16r
16dd
8cc
16ccc
8ddd
16dd
=35
8cc
16ccc
16ddd
16r
16dd
8cc
=36
4.cc#
8cc#[
=37
4cc#]
4cc#[
=38
8.cc#]
16C
8C#
8C#
=39
8r
8C#
8C#
8C#
=40
8C#
8C#
8r
8C#
=41
8C#
8C#
8r
8C#
=42
8r
8C#
8r
8C#
=43
8r
8C#
8r
8C#
=44
2c#
=45
2c#
=46
8c#
8ff#
4ff#
=47
*M5/8
8c#
8c#
4.c#
=48
*M3/4
2.c#
=49
*M2/4
8c#
8ff#
4ff#
=50
*M5/8
8cc#
8cc#
4.cc#
=51
*M3/8
8cc#
8ff#
8cc#
=52
*M5/8
8cc#
8cc#
4.cc#
=53
*M3/8
8cc#
8ff#
8cc#
=54
*M5/8
8cc#[
4.cc#]
8r
=55
*M2/4
2ccc#[
=56
4ccc#]
4ccc#
=57
4r
8ccc#
8eee-
=58
8eee-
8ccc#
8eee-
8ccc#
=59
8r
8eee-
8eee-
8ccc#
=60
*M3/4
8fff#
8fff#
8ccc#
8eee-
8ccc#
8ff#
=61
*M2/4
2ccc#
=62
2ccc#[
=63
4.ccc#]
8eee-
=64
8eee-
8ccc#
8r
8ccc#
=65
8bb-
8gg#
8eee-
8ccc#
=66
8fff#
8ccc#
8eee-
8ccc#
=67
4gg#
4bb-
=68
2bb-[
=69
4bb-]
8r
8G#
=70
4B-
16gg#
16gg#
8bb-
=71
8r
16ggg#
16ggg#
4bbb-
=72
16GGG#
16GGG#
8BBB-
4GG#
=73
2GG#[
=74
8GG#]
8GG#
8BB-
8C
=75
*M3/8
8D
32E
32F
32F#
32G
16r
32r
32G#
=76
*M2/4
2g#
=77
2g#
=78
8.g#
32g#[
32g#]
8g#
16.g#[
32g#]
=79
8g#
16.b-[
32b-]
8b-
16.g#[
32g#]
=80
8g#
16.b-[
32b-]
8b-
16.g#[
32g#]
=81
8g#
16.b-[
32b-]
8b
16.b-[
32b-]
=82
8.g#
32g#[
32g#]
8.e-
32e-[
32e-]
=83
8g#
16.cc#[
32cc#]
8b
16.b-[
32b-]
=84
8.g#
32g#[
32g#]
8.e-
32e-[
32e-]
=85
8f
16.g[
32g]
8.g#
32g#[
32g#]
=86
2e-[
=87
4e-]
16fff
16fff
16ggg
16ggg
=88
8r
8gggg#
4EE-
=89
2EE-
=90
2EE-
=91
2EE-
=92
*M5/8
8EE-[
4.EE-]
16r
32r
32e-
=93
*M2/4
8.ee-
32ee-[
32ee-]
8ee-
16.ee-[
32ee-]
=94
8ee-
16.ee-[
32ee-]
8ee-
8ee-
=95
8r
16.ee-[
32ee-]
8ee-
16.ee-[
32ee-]
=96
8ee-
16.ee-[
32ee-]
8ee-
16.ee-[
32ee-]
=97
8ee-
16.ff[
32ff]
8ff
16.ee-[
32ee-]
=98
8ee-
16.ff[
32ff]
8ff
16.ee-[
32ee-]
=99
8ee-
16.gg#[
32gg#]
8ff#
16.ff[
32ff]
=100
8.ee-
32ee-[
32ee-]
4b-
=101
16r
32r
32e-
8r
4ee-[
=102
4.ee-]
16.gg#[
32gg#]
=103
8ff#
16.ff[
32ff]
8ff#
16.ff[
32ff]
=104
8ee-
16gg#
16ggg#
8ff#
16.ff[
32ff]
=105
8ff#
16.ff[
32ff]
8ee-
16.gg#[
32gg#]
=106
8ff#
16.ff[
32ff]
8ee-
16gg#
16ggg#
=107
8ff#
16.ff[
32ff]
8ff#
16.ff[
32ff]
=108
*M3/8
4ee-
16.b-[
32b-]
=109
*M2/4
8cc
16.dd[
32dd]
4ee-
=110
4b-
16ccc
16ccc
16ddd
16ddd
=111
2eeee-
=112
8dd
8a
8B
8a
=113
8cc
8e
8f#
8ee
=114
8a
8gg
8cc#
8dd
=115
8ee
8ff#
8gg
8aa
=116
8bb-
8ee-
8f#
8g
=117
8bb-
8ee-
8f#
8g
=118
8bb-
8ee-
16bbb-[
8.bbb-]
=119
8r
16r
16bb-[
4bb-]
=120
8a
16g
16bb-[
4bb-]
=121
4a
4eee-
=122
16ee-[
16ee-]
16g
16bb-[
4bb-]
=123
4a
4ee-
=124
16ee-[
16ee-]
8g
8bb-
8ee-
=125
4b-
4e
=126
8aaa
8ggg
8fff#
8eee
=127
8aa
8gg
4ff#
=128
2ee
=129
8a
8g
8f#
8e
=130
8d
8c#
4B
=131
2A
=132
8aaa
8ggg
8fff#
8eee
=133
8dd
8cc
4b
=134
*M3/4
4a
8a
8a
8a[
8a]
=135
*M2/4
16B-
16B-
8G#
4r
=136
8r
16bb-
16bb-
4gg#
=137
16bbb-
16bbb-
8ggg#
8r
16BBB-
16BBB-
=138
*M3/8
8GGG#
16r
64A
64B
64c
64d
8e-
=139
*M2/4
2e-
=140
16e-
16e-
8e-
8e-
16b-
16b-
=141
*M3/4
4g#
8e-
8e-
8e-[
8e-]
=142
*M2/4
16B-
16B-
8G#
8r
16ee-
16ee-
=143
4cc#
16bb-
16bb-
8gg#
=144
16eeee-
16eeee-
8cccc#
8r
16GGG#
16GGG#
=145
*M3/8
8BBB-
16r
64c
64d
64e
64f
8f#
=146
*M2/4
2f#
=147
16f#
16f#
8f#
8f#
16ee-
16ee-
=148
*M3/4
4cc#
8a
8g
8f#[
8f#]
=149
*M2/4
8d
8c#
8B
8A
=150
16B-
16B-
16G#
64c
64d
64e
64f
8f#
16ee-
16ee-
=151
4cc#
8f#
8f#
=152
8f#
8ee-
8cc#
8f#[
=153
4f#]
8ee-
8cc#
=154
*M4/8
16g#
16g#
16g#
16g#
16g#
64cc
64dd
64ee
64ff
8ff#
=155
*M2/4
8ff#
8ff#
8ff#
8gg
=156
8ff#
8ff#
8ff#
8ff#[
=157
8.ff#]
16ff
4ff#
=158
*M5/8
8ff#
8ff#
8gg
8bb-
8gg
=159
8ff#
8ff#
8ff#
8ff#[
8ff#]
=160
*M2/8
16ff
64g
64a
64b
64cc
8cc#
=161
*M5/8
8cc#
8cc#
4.cc#
=162
*M3/4
2cc#
4r
=163
*M2/4
8f
8g
8g#
8b-
=164
*M5/8
8g#
8g
8f
16e
64r
64d
64e
64f
8f#
=165
8f#
8f#
8f#
8f#[
8f#]
=166
*M1/4
16c
64G
64d
64e
64f
8f#
=167
*M5/8
8f#
8f#
8f#
8f#[
8f#]
=168
*M1/4
16c
64G
64d
64e
64f
8f#
=169
*M3/4
8f#
8f#[
8f#]
8d
16c
64G
64A
64B
64c
8c#
=170
8c#
8f
8e-
8d
16c
64r
64BB-
64BB
64C
8C#
=171
*M2/4
8C#
8D
8E-
8D
=172
8C#
8D
8E-
8D
=173
8r
8F
8E-
8D
=174
8E-
8D
8C
8BB
=175
8.BB-
16C
8C#
8C#
=176
8C#
8C#
8C#
8C#
=177
8C#
8C#
8r
8C#
=178
*M3/4
8C#
8C#
8C#
8C#
8r
8C#
=179
*M2/4
16C
16C
8BB
8r
16cc
16cc
=180
*M3/8
8b
8r
16ccc
16bb
=181
*M2/4
8.BB-
16C
8C#
8C#
=182
*M3/8
8C#
8C#
8C#
=183
*M2/4
8C#
8C#
8C#
8C#
=184
*M3/8
8C#
8C#
8C#
=185
*M3/4
4r
8.C
16D
8.c#
16d#
=186
*M2/4
8e
16e
16f#
4g
=187
2g
=188
2g
=189
4g[
16g]
16aa
16gg
16ff#
=190
16gg
16ff#
8ee
4r
=191
2r
=192
*M3/4
4r
4r
8r
16e
16f#
=193
2.g
=194
*M2/4
16g
16a
16g
16f#
8.e
16aa
=195
16gg
16ff#
8ee
8r
8D
=196
16r
16ee
8ff#
16e
8f#
16eee
=197
4fff#
16r
16f#
16g
16a
=198
16b
8.cc
16r
16bb
8ccc
=199
8r
16r
16b
4cc
=200
16r
16bb
8ccc
16r
16a
16b
16cc
=201
16dd
16cc
16dd
16ee-
16dd
8.cc
=202
4r
16r
16ffff
16eeee-
16dddd
=203
8.cccc
16ddd
16fff
16eee-
16ddd
16ccc
=204
16r
16dd
8cc
16r
16eee-
16ddd
16ccc
=205
16bb
8aa
16ddd
16ccc
16bb
8aa
=206
16r
16cc
16b
16a
16r
16bb
8aa
=207
16r
16bbb
8aaa
16bb
8aa
16aa
=208
4.bb-
8bb-[
=209
4bb-]
8.bb-
32bb-[
32bb-]
=210
8.b-
32b-[
32b-]
8b-
16.b-[
32b-]
=211
8b-
16.b-[
32b-]
8b-
16.b-[
32b-]
=212
8b-
16.cc[
32cc]
8cc
16.b-[
32b-]
=213
8b-
16.cc[
32cc]
8cc
16.b-[
32b-]
=214
8b-
16.cc[
32cc]
8cc#
16.cc[
32cc]
=215
8.b-
32b-[
32b-]
4f
=216
8.c#
16d#
8e
8e
=217
8e
8e
8e
8e
=218
16e
32r
32e-
8ee-
8cc#
16.cc[
32cc]
=219
*M3/8
4b-
16.f[
32f]
=220
*M2/4
8g
16.a[
32a]
8.b-
32b-[
32b-]
=221
2f
=222
8.C
16D
8.c#
16d#
=223
8e
8e
8e
8e
=224
8e
8e
8e
8e
=225
8e
8e
8e
8e
=226
8e
8e
8r
8e
=227
8e
8e
8e
8e
=228
8r
8e
8e
8e
=229
8r
8e
8r
8e
=230
*M3/4
8r
8e
8r
8e
8r
8e
=231
*M2/4
8r
8a
8g
8f#
=232
*M3/8
4e
8B
=233
*M2/4
8dddd
8cccc
8bbb
8aaa
=234
8gg
8ff#
4ee
=235
4.dd
16e
16f#
=236
8g
8f#
8e
8d
=237
8ggg
8fff#
4eee
=238
4.ddd
16ee
16ff#
=239
8gg
8ff#
8ee
8dd
=240
8g
8f#
8e
8d
=241
8gg
8ff#
8ee
8dd
=242
8ggg
8fff#
8eee
8ddd
=243
8f#
8e
8d
8c
=244
8cc#
8dd#
4ee
=245
2B
=246
2B
=247
2B
=248
2B
=249
2B[
=250
8B]
16ccc#
16ccc#
4eee-
=251
2eeee
=252
2BBB
=253
2BBB
=254
2BBB[
=255
8BBB]
8BBB
8r
8BBB
=256
8r
8BBB
8r
8BBB
=257
8r
8BBB
4r
=258
4g
8r
8BBB
=259
8r
8g
4r
=260
4BBB
8r
8g
=261
8r
8BBB
4r
=262
4g
8r
8BBB
=263
8r
8g
4r
=264
8r
64BBB
64CC
64DD
64EE
64FF
64GG
64AA
64BB
64C
64D
64E
64F
64G
64A
64B
64c
64d
64e
64f
64g
64a
64b
64cc
64dd
=265
4ee
4r
==
*-
